X: 20624
T: John Riordan's Heels
R: jig
M: 6/8
K: Dminor
|:~F3 EFE|DFA BFD|EA,E B,EA,|^CDE GFE|
~F3 EFE|DFA BFD|EA,E B,EA,|1 ^CDE DEG:|2 ^CDE DFA||
|:~B3 BAG|E3 EGB|ADE FED|A,DE FGA|
~B3 BAG|E3 EGB|ADE FED|^CDE FGA:|
|:def f2f|def f2f|e^cA ged|ae^c Ade|
def f2f|def f2f|e^cA ~g3|ed^c d3:|

